X:218
T:Easter Thursday
C:John Johnson, 1733
%%MIDI gchord fcHcfc
%%MIDI beat 100 95 80
S:Colin Hume's website,  colinhume.com  - chords can also be printed below the stave.
Q:1/2=104
M:3/2
L:1/8
K:Dm
|: "Dm"d4 def2 e2d2 | "Am"e2A4 c2B2A2 | "Bb"B4 Bcd2 "C7"c2B2 | "F"c2F4 c2B2A2 |\
| "Gm"GAB2 "Dm"AGF2 "A7"GFE2 | "Dm"FED2 FGA2 "Dm"D4 :|
|: "Dm"agfe f2a2 d2a2 | "Gm"bagf "C7"e2g2 c2g2 | "Dm"agfe "Bb"d2f2 B2f2 | "Gm"gfed "A7"^c2e2 A2F2- |\
"Dm"F2G2- "A7"G2A2- "Dm"A2B2- | "Gm"B2A2- "Dm"A2d2 "A7"e2^c2 :|

